X:38
T:B038-  Bonny lass, gin thou wert mine
Q:1/4=120
L:1/4
M:C|
K:Dm
F(E/2D/2)FA|dcA(A/2B/4c/4)|F(E/2D/2)FA|\
(f/2e/2) (d/2c/2)A(c|c)cd(e/2f/2)|g3z/2f/2|\
(f/2d/2) (c/2d/2) f3/2e/2|d(c/2A/2) c(d/2e/2)|\
(f/2d/2) (c/2A/2)G(A/2B/2)|(c/2A/2) (G/2F/2)D3/2 E/2|\
(F/2G/2)AA(d|d)cd(e/2f/2)|g3z/2f/2|(f/2d/2) (c/2d/2)f3/2e/2|\
d(c/2A/2)c(d/2e/2)|(f/2d/2) (c/2A/2)G(A/2B/2)|\
(c/2A/2)(G/2F/2)D3/2E/2|(F/2G/2)AA(d|d2)z2|]

